src/16/actions/draw-polygon-star.svg

<svg version="1.1" viewBox="0 0 16 16" xmlns="http://www.w3.org/2000/svg">
    <defs>
        <style type="text/css" id="current-color-scheme">.ColorScheme-Text {
        color:#323232;
      }</style>
    </defs>
    <path class="ColorScheme-Text" d="m6.984375 2-4.984375 3.8378906 1.9355469 6.1621094 2.2910156-0.011719-0.3125 1.861328 3.0898437-1.697265 3.0917968 1.691406-0.603515-3.564453 2.507812-2.5214845-2.488281-0.3652344 0.488281-1.6015625-5.015625-3.7910156zm0.0019531 1 1.8300781 1.3828125-1.3554687 2.8691406-3.4609375 0.5136719 2.5117188 2.517578-0.1191407 0.708985-1.84375 0.007812-1.5488281-4.9296875 3.9863281-3.0703125zm2.3945313 1.8085938 1.6191406 1.2246093-0.375 1.2285157-0.085938-0.0117188-1.1582026-2.4414062zm-0.3828125 0.6914062 1.0800781 2.2753906 2.421875 0.3554688-1.755859 1.765625 0.421875 2.4941406-2.1640629-1.183594-2.1621093 1.1875 0.4179687-2.4960935-1.7578125-1.7636719 2.421875-0.359375 1.0761719-2.2753906z" fill="currentColor"/>
    <g class="ColorScheme-Text" fill="currentColor" fill-opacity=".50196078">
        <path d="m2.874339 5.8895952c2.0374591-1.6684942 2.1445537-1.727992 4.2276841-3.3577045 0.6263066 0.4732753 1.248843 0.9518878 1.8696557 1.4320912 0.036093 0.03273-0.2567515 0.748522-0.6596518 1.6123666l-0.7245609 1.8755397c-1.1600513 0.1587267-1.8499208 0.2316193-3.1319975 0.3697832 0.6857185 0.7227088 1.1366036 1.1471726 2.2720121 2.3129846-0.092702 0.3896-0.2042595 0.743379-0.2898367 1.119581h-1.9408871c-0.5549873-1.7827573-1.1188323-3.5704513-1.6224179-5.3646418z"/>
        <path d="m6.5891353 12.829429c0-0.02964 0.4283579-2.620331 0.4458983-2.696778 0.00773-0.03366-0.1647274-0.2166768-0.9662068-1.0254414l-0.9756065-0.9844745 1.3314855-0.1963842c0.732317-0.1080114 1.3401456-0.2029499 1.3507306-0.2109745 0.0105849-0.0080248 0.2838467-0.5743396 0.6072486-1.2584773 0.3234017-0.6841378 0.5929527-1.2439104 0.599002-1.2439392 0.00605-2.87e-5 0.2785939 0.5635562 0.6056547 1.2524108 0.4694183 0.9886865 0.6029843 1.2543907 0.6342023 1.2616157 0.02175 0.00504 0.623858 0.094546 1.338015 0.1989154 0.714156 0.1043693 1.302458 0.1937524 1.307336 0.198629 0.0049 0.00488-0.429468 0.4487338-0.965216 0.9863491l-0.974087 0.9774821 0.233157 1.376592c0.128236 0.757126 0.230187 1.37956 0.226558 1.383189-0.0036 0.0036-0.545417-0.287713-1.203973-0.647425l-1.1973706-0.654021-1.1367403 0.624225c-1.3875931 0.761977-1.2600878 0.695344-1.2600878 0.658507z"/>
        <path d="m9.9016442 6.0110824c-0.3773364-0.7562922-0.6823881-1.3785702-0.6778923-1.3828401 0.0108354-0.0102914 1.9012681 1.3489307 1.8977061 1.3644602-0.0015 0.00663-0.09326 0.2942667-0.203864 0.6392054-0.110606 0.3449386-0.209619 0.6558243-0.220032 0.6908571-0.01404 0.047228-0.03068 0.063657-0.06439 0.063545-0.03987-1.372e-4 -0.129832-0.1692576-0.7315258-1.3752275z"/>
    </g>
</svg>

<svg xmlns="http://www.w3.org/2000/svg" viewBox="0 0 16 16">
  <defs id="defs3051">
    <style type="text/css" id="current-color-scheme">
      .ColorScheme-Text {
        color:#5d656b;
      }
      </style>
  </defs>
 <path style="fill:currentColor;fill-opacity:1;stroke:none" 
     d="M 6.984375 2 L 2 5.8378906 L 3.9355469 12 L 6.2265625 11.988281 L 5.9140625 13.849609 L 9.0039062 12.152344 L 12.095703 13.84375 L 11.492188 10.279297 L 14 7.7578125 L 11.511719 7.3925781 L 12 5.7910156 L 6.984375 2 z M 6.9863281 3 L 8.8164062 4.3828125 L 7.4609375 7.2519531 L 4 7.765625 L 6.5117188 10.283203 L 6.3925781 10.992188 L 4.5488281 11 L 3 6.0703125 L 6.9863281 3 z M 9.3808594 4.8085938 L 11 6.0332031 L 10.625 7.2617188 L 10.539062 7.25 L 9.3808594 4.8085938 z M 8.9980469 5.5 L 10.078125 7.7753906 L 12.5 8.1308594 L 10.744141 9.8964844 L 11.166016 12.390625 L 9.0019531 11.207031 L 6.8398438 12.394531 L 7.2578125 9.8984375 L 5.5 8.1347656 L 7.921875 7.7753906 L 8.9980469 5.5 z "
     class="ColorScheme-Text"
     />
</svg>
